X: 1
T:O'Rahilly's March
T:Gerald Sullivan's
B:"Drawing from the Well" 10.1
F:file ID: dfw/16orah_m
M:4/4
L:1/8
Q:120
R:march
K:D
(3ABc|d2d>f e2dB|A>BAF A2de|f>dfa f2ed|e2A>B A2 (3ABc|
d2d>f e2dB|A>BAF A2de|f>afa A2f>e|d2d>c d2 :|
df|a2a>b a2gf|e>def g2fe|f>dfa f2ed|e2A>B AGFE|
d2df e2dB|A>BAF A2de|f>afa A2fe|d2d>c d2 :|





